assets/icons/emote/glasses-filled.svg

<?xml version="1.0" encoding="UTF-8" standalone="no"?>
<svg
   viewBox="0 0 24 24"
   width="24"
   height="24"
   version="1.1"
   id="svg4"
   sodipodi:docname="glasses-filled.svg"
   inkscape:version="1.2 (1:1.2.1+202207142221+cd75a1ee6d)"
   xmlns:inkscape="http://www.inkscape.org/namespaces/inkscape"
   xmlns:sodipodi="http://sodipodi.sourceforge.net/DTD/sodipodi-0.dtd"
   xmlns="http://www.w3.org/2000/svg"
   xmlns:svg="http://www.w3.org/2000/svg"
   xmlns:rdf="http://www.w3.org/1999/02/22-rdf-syntax-ns#"
   xmlns:cc="http://creativecommons.org/ns#"
   xmlns:dc="http://purl.org/dc/elements/1.1/">
  <metadata
     id="metadata10">
    <rdf:RDF>
      <cc:Work
         rdf:about="">
        <dc:format>image/svg+xml</dc:format>
        <dc:type
           rdf:resource="http://purl.org/dc/dcmitype/StillImage" />
      </cc:Work>
    </rdf:RDF>
  </metadata>
  <defs
     id="defs8" />
  <sodipodi:namedview
     pagecolor="#ffffff"
     bordercolor="#666666"
     borderopacity="1"
     objecttolerance="10"
     gridtolerance="10"
     guidetolerance="10"
     inkscape:pageopacity="0"
     inkscape:pageshadow="2"
     inkscape:window-width="1920"
     inkscape:window-height="1016"
     id="namedview6"
     showgrid="true"
     inkscape:zoom="11.313709"
     inkscape:cx="12.81631"
     inkscape:cy="4.1984465"
     inkscape:window-x="0"
     inkscape:window-y="0"
     inkscape:window-maximized="1"
     inkscape:current-layer="svg4"
     inkscape:pagecheckerboard="0"
     inkscape:showpageshadow="2"
     inkscape:deskcolor="#d1d1d1">
    <inkscape:grid
       type="xygrid"
       id="grid1422" />
  </sodipodi:namedview>
  <path
     id="path612"
     style="fill:#808080;fill-rule:evenodd;stroke-width:1"
     d="M 11.953125 2.625 A 9.375 9.375 0 0 0 3.734375 7.625 L 6.7070312 7.625 C 7.1379981 6.8764284 7.9458012 6.375 8.875 6.375 C 9.8041989 6.375 10.612002 6.8764284 11.042969 7.625 L 12.957031 7.625 C 13.387998 6.8764284 14.195801 6.375 15.125 6.375 C 16.054199 6.375 16.862002 6.8764284 17.292969 7.625 L 20.291016 7.625 A 9.375 9.375 0 0 0 12 2.625 A 9.375 9.375 0 0 0 11.953125 2.625 z M 8.8359375 7.6054688 C 8.2453343 7.6054688 7.7605421 8.028901 7.625 8.5820312 L 7.625 8.875 L 7.5859375 8.875 C 7.5858402 8.881544 7.5859375 8.8879713 7.5859375 8.8945312 L 7.5859375 10.105469 C 7.5859375 10.80338 8.1380257 11.355469 8.8359375 11.355469 C 9.5338493 11.355469 10.125 10.80338 10.125 10.105469 L 10.125 8.8945312 C 10.125 8.8879693 10.125104 8.88154 10.125 8.875 C 10.114029 8.1856827 9.5272863 7.6054688 8.8359375 7.6054688 z M 15.125 7.625 C 14.427088 7.625 13.875 8.2161507 13.875 8.9140625 L 13.875 10.125 C 13.875 10.822911 14.427088 11.375 15.125 11.375 C 15.822912 11.375 16.375 10.822911 16.375 10.125 L 16.375 8.9140625 C 16.375 8.2161507 15.822912 7.625 15.125 7.625 z M 3.1855469 8.875 A 9.375 9.375 0 0 0 2.625 12 A 9.375 9.375 0 0 0 12 21.375 A 9.375 9.375 0 0 0 21.375 12 A 9.375 9.375 0 0 0 20.837891 8.875 L 17.625 8.875 L 17.625 10.125 C 17.625 11.509999 16.509999 12.625 15.125 12.625 C 13.740001 12.625 12.625 11.509999 12.625 10.125 L 12.625 8.875 L 11.375 8.875 L 11.375 10.125 C 11.375 11.509999 10.259998 12.625 8.875 12.625 C 7.4900014 12.625 6.375 11.509999 6.375 10.125 L 6.375 8.875 L 3.1855469 8.875 z M 6.375 13.875 C 8.6179891 15.50431 15.332452 15.50431 17.625 13.875 L 17.591797 14.539062 C 17.583038 14.654301 17.510652 14.931847 17.382812 15.269531 C 14.939137 16.725071 8.7523235 16.700621 6.4882812 15.193359 C 6.4199273 14.963346 6.375 14.76405 6.375 14.65625 L 6.375 13.875 z " />
</svg>

<svg width="24" height="24" xmlns="http://www.w3.org/2000/svg"><path style="fill:gray;stroke-width:1" d="M11.953 2.625a9.375 9.375 0 0 0-8.219 5h2.973a2.494 2.494 0 0 1 2.168-1.25c.93 0 1.737.501 2.168 1.25h1.914a2.494 2.494 0 0 1 2.168-1.25c.93 0 1.737.501 2.168 1.25h2.998a9.375 9.375 0 0 0-8.291-5 9.375 9.375 0 0 0-.047 0zm-3.117 4.98c-.59 0-1.075.424-1.211.977v.293h-.04v1.23c0 .698.553 1.25 1.25 1.25.699 0 1.29-.552 1.29-1.25v-1.23a1.308 1.308 0 0 0-1.29-1.27zm6.289.02c-.698 0-1.25.591-1.25 1.29v1.21c0 .698.552 1.25 1.25 1.25a1.24 1.24 0 0 0 1.25-1.25v-1.21c0-.699-.552-1.29-1.25-1.29zm-11.94 1.25A9.375 9.375 0 0 0 2.626 12 9.375 9.375 0 0 0 12 21.375 9.375 9.375 0 0 0 21.375 12a9.375 9.375 0 0 0-.537-3.125h-3.213v1.25c0 1.385-1.115 2.5-2.5 2.5a2.495 2.495 0 0 1-2.5-2.5v-1.25h-1.25v1.25c0 1.385-1.115 2.5-2.5 2.5a2.495 2.495 0 0 1-2.5-2.5v-1.25h-3.19zm3.19 5c2.243 1.63 8.957 1.63 11.25 0l-.033.664c-.009.115-.081.393-.21.73-2.443 1.456-8.63 1.432-10.894-.076-.068-.23-.113-.429-.113-.537v-.781z"/></svg>
